src/lib/assets/spinner.svg

<svg xmlns="http://www.w3.org/2000/svg" width="512" height="512" fill="none"><path fill="#fff" d="M304 48c0-26.5-21.5-48-48-48s-48 21.5-48 48 21.5 48 48 48 48-21.5 48-48Zm0 416c0-26.5-21.5-48-48-48s-48 21.5-48 48 21.5 48 48 48 48-21.5 48-48ZM48 304c26.5 0 48-21.5 48-48s-21.5-48-48-48-48 21.5-48 48 21.5 48 48 48Zm464-48c0-26.5-21.5-48-48-48s-48 21.5-48 48 21.5 48 48 48 48-21.5 48-48ZM142.9 437c18.7-18.7 18.7-49.1 0-67.9-18.7-18.8-49.1-18.7-67.9 0-18.8 18.7-18.7 49.1 0 67.9 18.7 18.8 49.1 18.7 67.9 0Zm0-294.2c18.7-18.7 18.7-49.1 0-67.9-18.7-18.8-49.2-18.7-67.9.1-18.7 18.8-18.7 49.1 0 67.9 18.7 18.8 49.1 18.7 67.9 0v-.1ZM369.1 437c18.7 18.7 49.1 18.7 67.9 0 18.8-18.7 18.7-49.1 0-67.9-18.7-18.8-49.1-18.7-67.9 0-18.8 18.7-18.7 49.1 0 67.9Z"/></svg>

<svg width="512" height="512" viewBox="0 0 512 512" fill="none" xmlns="http://www.w3.org/2000/svg">
<path d="M304 48C304 21.5 282.5 0 256 0C229.5 0 208 21.5 208 48C208 74.5 229.5 96 256 96C282.5 96 304 74.5 304 48ZM304 464C304 437.5 282.5 416 256 416C229.5 416 208 437.5 208 464C208 490.5 229.5 512 256 512C282.5 512 304 490.5 304 464ZM48 304C74.5 304 96 282.5 96 256C96 229.5 74.5 208 48 208C21.5 208 0 229.5 0 256C0 282.5 21.5 304 48 304ZM512 256C512 229.5 490.5 208 464 208C437.5 208 416 229.5 416 256C416 282.5 437.5 304 464 304C490.5 304 512 282.5 512 256ZM142.9 437C161.6 418.3 161.6 387.9 142.9 369.1C124.2 350.3 93.8 350.4 75 369.1C56.2 387.8 56.3 418.2 75 437C93.7 455.8 124.1 455.7 142.9 437ZM142.9 142.8C161.6 124.1 161.6 93.7 142.9 74.9C124.2 56.1 93.7 56.2 75 75C56.3 93.8 56.3 124.1 75 142.9C93.7 161.7 124.1 161.6 142.9 142.9V142.8ZM369.1 437C387.8 455.7 418.2 455.7 437 437C455.8 418.3 455.7 387.9 437 369.1C418.3 350.3 387.9 350.4 369.1 369.1C350.3 387.8 350.4 418.2 369.1 437Z" fill="white"/>
</svg>
